_includes/icons/color-coworking.svg

<svg fill="#666" height="50" viewBox="0 0 48 48" width="50" xmlns="http://www.w3.org/2000/svg"><path d="m6 21h14v-.013c0-3.306-2.681-5.987-5.987-5.987h-2.025c-3.307 0-5.988 2.681-5.988 5.987z" fill="#64b5f6"/><g fill="#ff9800"><path d="m15.001 13h-4v3s.328 1 1.959 1 2.041-1 2.041-1z"/><circle cx="16.5" cy="10.5" r="1.5"/><circle cx="9.5" cy="10.5" r="1.5"/></g><path d="m17 7.216c0-2.206-1.794-2.216-4-2.216s-4 .01-4 2.216v3.784c0 2.206 1.794 4 4 4s4-1.794 4-4c0-.347 0-3.436 0-3.784z" fill="#ffb74d"/><path d="m12.781 3c-2.437.219-4.781 1.93-4.781 5.574v1.426l1 1v-3l6.31-2.201 1.69 2.201v3l1-1v-1.203c0-2.414-.135-4.205-3-4.797l-.485-1z" fill="#424242"/><path d="m28 21h14v-.013c0-3.306-2.681-5.987-5.987-5.987h-2.025c-3.307 0-5.988 2.681-5.988 5.987z" fill="#7cb342"/><g fill="#ff9800"><path d="m37.001 13h-4v3s.328 1 1.959 1 2.041-1 2.041-1z"/><circle cx="38.5" cy="10.5" r="1.5"/><circle cx="31.5" cy="10.5" r="1.5"/></g><path d="m39 7.216c0-2.206-1.794-2.216-4-2.216s-4 .01-4 2.216v3.784c0 2.206 1.794 4 4 4s4-1.794 4-4c0-.347 0-3.436 0-3.784z" fill="#ffb74d"/><path d="m34.781 3c-2.437.219-4.781 1.93-4.781 5.574v1.426l1 1v-3l6.31-2.201 1.69 2.201v3l1-1v-1.203c0-2.414-.135-4.205-3-4.797l-.485-1z" fill="#424242"/><path d="m1 31h46v4h-46z" fill="#ffc107"/><path d="m26 30c0 .555.445 1 1 1h16c.555 0 1-.445 1-1v-10c0-.555-.445-1-1-1h-16c-.555 0-1 .445-1 1z" fill="#455a64"/><path d="m4 30c0 .555.445 1 1 1h16c.555 0 1-.445 1-1v-10c0-.555-.445-1-1-1h-16c-.555 0-1 .445-1 1z" fill="#455a64"/><path d="m4 35h4v10h-4z" fill="#ff9800"/><path d="m40 35h4v10h-4z" fill="#ff9800"/><path d="m8 35h32v6h-32z" fill="#f57c00"/></svg>

<svg xmlns="http://www.w3.org/2000/svg" viewBox="0 0 48 48" width="50" height="50" fill="#666"><path d="M6,21h14v-0.013C20,17.681,17.319,15,14.013,15h-2.025C8.681,15,6,17.681,6,20.987V21z" fill="#64b5f6"/><path d="M15.001,13h-4v3c0,0,0.328,1,1.959,1s2.041-1,2.041-1V13z" fill="#ff9800"/><circle cx="16.5" cy="10.5" r="1.5" fill="#ff9800"/><circle cx="9.5" cy="10.5" r="1.5" fill="#ff9800"/><path d="M17,7.216C17,5.01,15.206,5,13,5S9,5.01,9,7.216C9,7.563,9,10.652,9,11c0,2.206,1.794,4,4,4 s4-1.794,4-4C17,10.653,17,7.564,17,7.216z" fill="#ffb74d"/><path d="M12.781,3C10.344,3.219,8,4.93,8,8.574V10l1,1V8l6.31-2.201L17,8v3l1-1V8.797 C18,6.383,17.865,4.592,15,4l-0.485-1C14.515,3,12.781,3,12.781,3z" fill="#424242"/><path d="M28,21h14v-0.013C42,17.681,39.319,15,36.013,15h-2.025C30.681,15,28,17.681,28,20.987V21z" fill="#7cb342"/><path d="M37.001,13h-4v3c0,0,0.328,1,1.959,1s2.041-1,2.041-1V13z" fill="#ff9800"/><circle cx="38.5" cy="10.5" r="1.5" fill="#ff9800"/><circle cx="31.5" cy="10.5" r="1.5" fill="#ff9800"/><path d="M39,7.216C39,5.01,37.206,5,35,5s-4,0.01-4,2.216c0,0.347,0,3.436,0,3.784c0,2.206,1.794,4,4,4 s4-1.794,4-4C39,10.653,39,7.564,39,7.216z" fill="#ffb74d"/><path d="M34.781,3C32.344,3.219,30,4.93,30,8.574V10l1,1V8l6.31-2.201L39,8v3l1-1V8.797 C40,6.383,39.865,4.592,37,4l-0.485-1C36.515,3,34.781,3,34.781,3z" fill="#424242"/><path d="M1,31h46v4H1V31z" fill="#ffc107"/><g><path d="M26,30c0,0.555,0.445,1,1,1h16c0.555,0,1-0.445,1-1V20c0-0.555-0.445-1-1-1H27c-0.555,0-1,0.445-1,1 V30z" fill="#455a64"/></g><g><path d="M4,30c0,0.555,0.445,1,1,1h16c0.555,0,1-0.445,1-1V20c0-0.555-0.445-1-1-1H5c-0.555,0-1,0.445-1,1 V30z" fill="#455a64"/></g><g><path d="M4,35h4v10H4V35z" fill="#ff9800"/></g><g><path d="M40,35h4v10h-4V35z" fill="#ff9800"/></g><g><path d="M8,35h32v6H8V35z" fill="#f57c00"/></g></svg>
